packages/core/src/svgs/tokens/branded/GEL.svg

<svg width="24" height="24" viewBox="0 0 24 24" fill="none" xmlns="http://www.w3.org/2000/svg">
<path d="M17.3978 7.81659C17.3978 8.09105 17.1405 8.28547 16.8603 8.25687C16.1741 8.18826 15.5452 8.19398 14.9619 8.25687C13.6811 8.38839 12.6176 8.81723 11.6397 9.18318L11.4626 9.24602C10.4219 9.63493 9.46128 9.96088 8.32338 9.98943C7.86595 10.0009 7.37992 9.96087 6.84243 9.85214C6.61401 9.80117 6.40536 9.68483 6.2419 9.51726C6.07844 9.34982 5.96724 9.13835 5.92184 8.90872C5.76596 8.11516 5.778 7.29774 5.95715 6.5091C6.13631 5.72047 6.47863 4.97809 6.96208 4.32977C7.44552 3.68143 8.05938 3.14152 8.76411 2.7448C9.46889 2.34808 10.2489 2.10334 11.0539 2.02633C11.859 1.94931 12.6712 2.04173 13.4384 2.29764C14.2055 2.55355 14.9106 2.96728 15.5082 3.51219C16.1058 4.0571 16.5828 4.72111 16.9082 5.46147C17.2336 6.20184 17.4004 7.00215 17.3978 7.81087V7.81659Z" fill="url(#paint0_linear_364_10077)"/>
<path d="M6.38526 10.6927C6.30821 10.6763 6.22856 10.6763 6.15149 10.6925C6.07443 10.709 6.00169 10.7414 5.93802 10.7878C5.87436 10.8342 5.82118 10.8936 5.78198 10.9619C5.74278 11.0302 5.71844 11.1061 5.71053 11.1845C5.70482 11.2702 5.72197 11.356 5.76772 11.4474L11.2112 21.8713C11.3027 22.0429 11.5486 22.0429 11.64 21.8713L18.2042 10.3667C18.2672 10.2467 18.2957 10.1152 18.29 9.98942C18.2787 9.69203 18.0785 9.41759 17.7526 9.35475C16.7633 9.15462 15.8084 9.13741 15.0594 9.21172C13.9044 9.3318 12.9438 9.68629 11.9489 10.058L11.7945 10.1152C10.6998 10.5785 9.53332 10.8493 8.34652 10.9157C7.71754 10.9328 7.11715 10.8642 6.38526 10.6869V10.6927Z" fill="url(#paint1_linear_364_10077)"/>
<path d="M11.4282 10.3897C11.4282 10.2639 11.5025 10.161 11.6169 10.1152L11.777 10.058C12.8318 9.64133 13.9342 9.35715 15.0591 9.21172C15.8081 9.13741 16.763 9.15462 17.7523 9.35475C18.0953 9.42333 18.3012 9.72632 18.2897 10.0409C18.2897 10.1553 18.2554 10.2639 18.2039 10.3667L11.6397 21.8713C11.6195 21.9099 11.5891 21.942 11.5518 21.9642C11.5144 21.9865 11.4716 21.9978 11.4282 21.9971V10.3897Z" fill="url(#paint2_linear_364_10077)"/>
<defs>
<linearGradient id="paint0_linear_364_10077" x1="14.8587" y1="9.1713" x2="14.8587" y2="21.9971" gradientUnits="userSpaceOnUse">
<stop stop-color="#FFC4A4"/>
<stop offset="1" stop-color="#FE858C"/>
</linearGradient>
<linearGradient id="paint1_linear_364_10077" x1="14.859" y1="9.1713" x2="14.859" y2="21.9971" gradientUnits="userSpaceOnUse">
<stop stop-color="#FFC4A4"/>
<stop offset="1" stop-color="#FE858C"/>
</linearGradient>
<linearGradient id="paint2_linear_364_10077" x1="14.8587" y1="9.1713" x2="14.8587" y2="21.9971" gradientUnits="userSpaceOnUse">
<stop stop-color="#FFC4A4"/>
<stop offset="1" stop-color="#FE858C"/>
</linearGradient>
</defs>
</svg>

<svg xmlns="http://www.w3.org/2000/svg" width="24" height="24" fill="none" viewBox="0 0 24 24">
    <path fill="url(#GEL__a)" d="M17.398 7.817c0 .274-.258.468-.538.44a9 9 0 0 0-1.898 0c-1.28.131-2.344.56-3.322.926l-.177.063c-1.041.389-2.002.715-3.14.743a6.6 6.6 0 0 1-1.48-.137 1.21 1.21 0 0 1-.921-.943A5.792 5.792 0 1 1 17.398 7.81z"/>
    <path fill="url(#GEL__b)" d="M6.385 10.693a.565.565 0 0 0-.603.269.6.6 0 0 0-.071.223.5.5 0 0 0 .057.262l5.443 10.424a.243.243 0 0 0 .429 0l6.564-11.504a.74.74 0 0 0 .086-.378.66.66 0 0 0-.537-.634 9.3 9.3 0 0 0-2.694-.143c-1.155.12-2.115.474-3.11.846l-.155.057a10.3 10.3 0 0 1-3.447.8c-.63.018-1.23-.05-1.962-.228z"/>
    <path fill="url(#GEL__c)" d="M11.428 10.39c0-.126.074-.229.189-.275l.16-.057c1.055-.417 2.157-.7 3.282-.846a9.3 9.3 0 0 1 2.693.143.67.67 0 0 1 .538.686.7.7 0 0 1-.086.326L11.64 21.87a.24.24 0 0 1-.212.126z"/>
    <defs>
        <linearGradient id="GEL__a" x1="14.859" x2="14.859" y1="9.171" y2="21.997" gradientUnits="userSpaceOnUse">
            <stop stop-color="#FFC4A4"/>
            <stop offset="1" stop-color="#FE858C"/>
        </linearGradient>
        <linearGradient id="GEL__b" x1="14.859" x2="14.859" y1="9.171" y2="21.997" gradientUnits="userSpaceOnUse">
            <stop stop-color="#FFC4A4"/>
            <stop offset="1" stop-color="#FE858C"/>
        </linearGradient>
        <linearGradient id="GEL__c" x1="14.859" x2="14.859" y1="9.171" y2="21.997" gradientUnits="userSpaceOnUse">
            <stop stop-color="#FFC4A4"/>
            <stop offset="1" stop-color="#FE858C"/>
        </linearGradient>
    </defs>
</svg>
